X: 1
T:Tammany Ring -- Clog
M:C|
L:1/8
R:clog
B:Ryan's Mammoth Collection
N:157 935
Z:Contributed by Ray Davies,  ray:davies99.freeserve.co.uk
K:Bb
u((3FGA)|\
vB>fd>B A>ec>A | B>fd>B F2B>A | G>Be>d c>BA>G | F>f=e>f g>f_e>c |
B>fd>B A>ec>A | B>fd>B F2B>A | G>Be>d c>BA>c | B2d2 B2 :|
|:u(c>.B)|\
A>(f=e)>(g f2)c>B | A>(f=e)>(g f2)g>f | =e>fg>a b>cd>e |\
 f>=ef>g f>ec>_e |
d>^cd>=c =B>df>d | c>dc>_B A>BA>F | B>df>b g>_ec>A | B>df>b B2 :|
